lib/assets/icons/svg/outlined-action-history.svg

<svg xmlns="http://www.w3.org/2000/svg" viewBox="0 0 24 24"><path d="M3.242 16.962a.5.5 0 1 1 .88-.48c3.114 5.763 11.3 5.994 14.734.415 3.434-5.578-.459-12.783-7.007-12.967a8.509 8.509 0 0 0-7.423 3.943l4.941-.819a.5.5 0 0 1 .57.41.49.49 0 0 1-.41.57l-6 1-.08.01a.468.468 0 0 1-.35-.15.46.46 0 0 1-.14-.43l1-6a.506.506 0 1 1 1 .16l-.62 3.656c3.907-4.607 11.469-4.495 15.09.87a9.499 9.499 0 0 1-7.849 14.812 9.498 9.498 0 0 1-8.336-5zm6.77-3.91v-4a.5.5 0 0 1 1 0v3.79l2.68 2.68a.5.5 0 0 1 0 .71.473.473 0 0 1-.35.14.501.501 0 0 1-.36-.14l-2.771-2.781a.498.498 0 0 1-.199-.399z"/></svg>

<svg viewBox="0 0 24 24" xmlns="http://www.w3.org/2000/svg">
  <path  d="M 3.242 16.962 C 3.057 16.623 3.308 16.212 3.694 16.221 C 3.873 16.225 4.036 16.325 4.122 16.482 C 7.236 22.245 15.422 22.476 18.856 16.897 C 22.29 11.319 18.397 4.114 11.849 3.93 C 8.83 3.845 6.019 5.363 4.426 7.873 L 9.367 7.054 C 9.637 7.012 9.891 7.194 9.937 7.464 C 9.985 7.736 9.8 7.993 9.527 8.034 L 3.527 9.034 L 3.447 9.044 C 3.314 9.046 3.187 8.991 3.097 8.894 C 2.978 8.785 2.925 8.622 2.957 8.464 L 3.957 2.464 C 4.019 2.079 4.474 1.905 4.776 2.151 C 4.917 2.265 4.986 2.445 4.957 2.624 L 4.337 6.28 C 8.244 1.673 15.806 1.785 19.427 7.15 C 21.325 9.962 21.578 13.573 20.092 16.622 C 18.505 19.881 15.202 21.952 11.578 21.962 C 8.092 21.951 4.893 20.032 3.242 16.962 Z M 10.012 13.052 L 10.012 9.052 C 10.012 8.667 10.429 8.427 10.762 8.619 C 10.917 8.708 11.012 8.873 11.012 9.052 L 11.012 12.842 L 13.692 15.522 C 13.889 15.718 13.889 16.036 13.692 16.232 C 13.6 16.325 13.473 16.376 13.342 16.372 C 13.208 16.375 13.078 16.325 12.982 16.232 L 10.211 13.451 C 10.09 13.36 10.012 13.215 10.012 13.052 Z"/>
</svg>
